icons/microphone-filled.svg

<svg width="24" height="24" viewBox="0 0 24 24" fill="none" xmlns="http://www.w3.org/2000/svg">
<path fill-rule="evenodd" clip-rule="evenodd" d="M8 7H11V5H8V4C8 2.666 8.667 2 10 2H14C15.333 2 16 2.666 16 4V13.024C16 14.341 15.333 14.999 14 14.999H10C8.667 14.999 8 14.332 8 12.999V7ZM19 10C19.2652 10 19.5196 10.1054 19.7071 10.2929C19.8946 10.4804 20 10.7348 20 11C20 15.071 16.939 18.435 13 18.93V20H16C16.2652 20 16.5196 20.1054 16.7071 20.2929C16.8946 20.4804 17 20.7348 17 21C17 21.2652 16.8946 21.5196 16.7071 21.7071C16.5196 21.8946 16.2652 22 16 22H8C7.73478 22 7.48043 21.8946 7.29289 21.7071C7.10536 21.5196 7 21.2652 7 21C7 20.7348 7.10536 20.4804 7.29289 20.2929C7.48043 20.1054 7.73478 20 8 20H11V18.93C7.061 18.435 4 15.071 4 11C4 10.7348 4.10536 10.4804 4.29289 10.2929C4.48043 10.1054 4.73478 10 5 10C5.26522 10 5.51957 10.1054 5.70711 10.2929C5.89464 10.4804 6 10.7348 6 11C6 14.308 8.691 17 12 17C15.309 17 18 14.308 18 11C18 10.7348 18.1054 10.4804 18.2929 10.2929C18.4804 10.1054 18.7348 10 19 10ZM8 10V12H11V10H8Z" fill="#3A3A47"/>
</svg>

<svg xmlns="http://www.w3.org/2000/svg" width="24" height="24" viewBox="0 0 24 24">
    <path fill="#3A3A47" fill-rule="evenodd" d="M19 10a1 1 0 0 1 1 1c0 3.984-2.932 7.292-6.75 7.895l-.25.035V20h3a1 1 0 0 1 .117 1.992L16 22H8a1 1 0 0 1-.117-1.993L8 19.999h3V18.93c-3.939-.495-7-3.859-7-7.93a1 1 0 1 1 2 0c0 3.308 2.691 6 6 6s6-2.692 6-6a1 1 0 0 1 1-1zm-5-8c1.333 0 2 .666 2 2v9.024c0 1.317-.667 1.975-2 1.975h-4c-1.333 0-2-.667-2-2V4C8 2.666 8.667 2 10 2h4zm-3 8H8v2h3v-2zm0-5H8v2h3V5z"/>
</svg>
